X: 8292
T: Corney Is Coming
R: reel
M: 4/4
K: Dmajor
|Addc defd|cABG EFGE|Addc defg|af (3gfe fdec|
Addc defd|cABG EFGE|Addc defd|1 gece eddc:|2 gece eddA||
|:dcdf afdB|=cdef ge^ce|dcdf afdf|~g2ag edd2|
[1afdf afdf|gece gece|defg ~a3f|~g2ag eddA:|
[2afdf ~a3f|gece ~g3e|defg ~a3f|~g2ag edd2||

